X:355
T: FRISCH AUF FRISCH AUF
N: F0622
O: Europa, Mitteleuropa, Deutschland
R: Soldaten -, Reiter - Lied
M: 4/4
L: 1/16
K: D
D2 | A,6F2D2F2D2F2 | A6
G2F2E2D2F2 | E4z4
E4E2F2 | E2D2C2B,2A,2
B,2C2D2 | E4E4A,4z4
C4C3CD4z2D2 | ^D6D2E4z4
G4F2E2=D2C2D2F2 | E12z2
D2 | A,6F2D2F2D2F2 | A6
FGA4EFGC | D8z6

